themes/default/assets/images/icons/mid/roi.svg

<?xml version="1.0" encoding="UTF-8"?>
<svg width="100px" height="75px" viewBox="0 0 100 75" version="1.1" xmlns="http://www.w3.org/2000/svg" xmlns:xlink="http://www.w3.org/1999/xlink">
    <!-- Generator: sketchtool 59 (101010) - https://sketch.com -->
    <title>1C235F46-9664-4EDD-9582-8F61A1C9C31E</title>
    <desc>Created with sketchtool.</desc>
    <g id="Page-1" stroke="none" stroke-width="1" fill="none" fill-rule="evenodd">
        <g id="Icons" transform="translate(-1093.000000, -3145.000000)" fill-rule="nonzero">
            <g id="mid-icon-roi" transform="translate(1093.000000, 3145.000000)">
                <path d="M61.89,0.974025974 C61.5074505,0.944333686 61.1666145,1.20821766 61.11,1.57792208 C61.0746887,1.9500205 61.3492407,2.2821398 61.73,2.32792208 L67.78,2.40584416 L27.94,36.0974026 C27.7141101,36.2806072 27.6321809,36.583089 27.7358861,36.8509892 C27.8395914,37.1188895 28.1061597,37.2933836 28.4,37.2859573 C28.5680511,37.282287 28.7300488,37.2239733 28.86,37.1201299 L69.11,2.92207792 L69.11,9.27272727 C69.0691307,9.64643749 69.3464382,9.9818901 69.73,10.0227273 L69.81,10.0227273 C70.1619021,10.025038 70.4592068,9.76903026 70.5,9.42857143 L70.5,0.974025974 L61.89,0.974025974 Z" id="Path" fill="#032663"></path>
                <path d="M73.87,72.6720779 L71,72.6720779 C71.0102526,72.6206098 71.0102526,72.5677019 71,72.5162338 L71,16.4707792 L62.54,16.4707792 L62.54,72.5162338 C62.5343703,72.5680371 62.5343703,72.6202746 62.54,72.6720779 L58.54,72.6720779 C58.5456297,72.6202746 58.5456297,72.5680371 58.54,72.5162338 L58.54,28.8409091 L50.14,28.8409091 L50.14,72.5162338 C50.1297474,72.5677019 50.1297474,72.6206098 50.14,72.6720779 L46.14,72.6720779 C46.1456297,72.6202746 46.1456297,72.5680371 46.14,72.5162338 L46.14,40.2467532 L37.75,40.2467532 L37.75,72.5162338 C37.7443703,72.5680371 37.7443703,72.6202746 37.75,72.6720779 L33.75,72.6720779 C33.7556297,72.6202746 33.7556297,72.5680371 33.75,72.5162338 L33.75,49.7532468 L25.35,49.7532468 L25.35,72.5162338 C25.3443703,72.5680371 25.3443703,72.6202746 25.35,72.6720779 L22.51,72.6720779 C22.2417947,72.6406855 21.9789801,72.762412 21.8346963,72.984855 C21.6904126,73.2072979 21.6904126,73.490754 21.8346963,73.713197 C21.9789801,73.9356399 22.2417947,74.0573665 22.51,74.025974 L73.87,74.025974 C74.1382053,74.0573665 74.4010199,73.9356399 74.5453037,73.713197 C74.6895874,73.490754 74.6895874,73.2072979 74.5453037,72.984855 C74.4010199,72.762412 74.1382053,72.6406855 73.87,72.6720779 L73.87,72.6720779 Z M63.94,72.5162338 L63.94,17.8246753 L69.63,17.8246753 L69.63,72.5162338 C69.6243703,72.5680371 69.6243703,72.6202746 69.63,72.6720779 L63.91,72.6720779 C63.9256995,72.6213259 63.9357572,72.5690782 63.94,72.5162338 L63.94,72.5162338 Z M51.54,72.5162338 L51.54,30.1948052 L57.23,30.1948052 L57.23,72.5162338 C57.2243703,72.5680371 57.2243703,72.6202746 57.23,72.6720779 L51.51,72.6720779 C51.5256995,72.6213259 51.5357572,72.5690782 51.54,72.5162338 Z M39.15,72.5162338 L39.15,41.6103896 L44.83,41.6103896 L44.83,72.5162338 C44.8243703,72.5680371 44.8243703,72.6202746 44.83,72.6720779 L39.11,72.6720779 C39.1337766,72.6232153 39.147372,72.5702462 39.15,72.5162338 L39.15,72.5162338 Z M26.75,72.5162338 L26.75,51.0876623 L32.43,51.0876623 L32.43,72.5162338 C32.4243703,72.5680371 32.4243703,72.6202746 32.43,72.6720779 L26.72,72.6720779 C26.7356995,72.6213259 26.7457572,72.5690782 26.75,72.5162338 L26.75,72.5162338 Z" id="Shape" fill="#A8C5DD"></path>
                <path d="M100,44.8051948 L96.39,44.8051948 L96.39,40.1006494 L95.39,40.1006494 L95.39,36.7792208 L99,36.7792208 L99,30.788961 L96.6,30.788961 L96.6,26.1331169 L94.19,26.1331169 L94.19,22.8116883 L95.4,22.8116883 L95.4,16.8214286 L94.19,16.8214286 L94.19,13.5 L95.4,13.5 L95.4,7.50974026 L79.56,7.50974026 L79.56,12.1655844 L78.35,12.1655844 L78.35,18.1558442 L79.56,18.1558442 L79.56,21.4772727 L78.35,21.4772727 L78.35,27.4675325 L80.76,27.4675325 L80.76,32.1428571 L83.17,32.1428571 L83.17,35.4642857 L79.56,35.4642857 L79.56,41.4545455 L80.56,41.4545455 L80.56,46.1103896 L84.18,46.1103896 L84.18,49.4318182 L81.75,49.4318182 L81.75,54.0876623 L79.34,54.0876623 L79.34,60.0779221 L80.54,60.0779221 L80.54,63.3993506 L79.34,63.3993506 L79.34,69.3896104 L80.54,69.3896104 L80.54,74.025974 L96.39,74.025974 L96.39,68.0357143 L95.18,68.0357143 L95.18,64.7142857 L96.39,64.7142857 L96.39,58.724026 L95.18,58.724026 L95.18,55.4025974 L97.59,55.4025974 L97.59,50.7467532 L100,50.7467532 L100,44.8051948 Z M89.16,49.4123377 L89.16,46.0909091 L95,46.0909091 L95,49.4123377 L89.16,49.4123377 Z M86.75,54.0681818 L86.75,50.7467532 L92.59,50.7467532 L92.59,54.0681818 L86.75,54.0681818 Z M90.4,36.7792208 L90.4,40.1006494 L84.55,40.1006494 L84.55,36.7792208 L90.4,36.7792208 Z M94,32.1428571 L94,35.4642857 L88.17,35.4642857 L88.17,32.1428571 L94,32.1428571 Z M89.2,22.8116883 L89.2,26.1331169 L83.35,26.1331169 L83.35,22.8116883 L89.2,22.8116883 Z M79.73,13.5 L86.9,13.5 L86.9,16.8214286 L79.73,16.8214286 L79.73,13.5 Z M84.55,12.1655844 L84.55,8.84415584 L90.4,8.84415584 L90.4,12.1655844 L84.55,12.1655844 Z M88.55,18.1558442 L94,18.1558442 L94,21.4772727 L88.5,21.4772727 L88.55,18.1558442 Z M95,41.4350649 L95,44.8051948 L88.83,44.8051948 L88.83,41.4350649 L95,41.4350649 Z M91.78,40.1006494 L91.78,36.7792208 L94,36.7792208 L94,40.1006494 L91.78,40.1006494 Z M97.63,32.1428571 L97.63,35.4642857 L95.4,35.4642857 L95.4,32.1428571 L97.63,32.1428571 L97.63,32.1428571 Z M95.22,27.4675325 L95.22,30.788961 L90.69,30.788961 L90.69,27.4675325 L95.22,27.4675325 Z M92.81,26.1331169 L90.58,26.1331169 L90.58,22.8116883 L92.81,22.8116883 L92.81,26.1331169 Z M92.81,16.8214286 L88.28,16.8214286 L88.28,13.5 L92.81,13.5 L92.81,16.8214286 Z M94,12.1655844 L91.78,12.1655844 L91.78,8.84415584 L94,8.84415584 L94,12.1655844 Z M80.94,8.84415584 L83.17,8.84415584 L83.17,12.1655844 L80.94,12.1655844 L80.94,8.84415584 Z M80.94,18.1558442 L87.12,18.1558442 L87.12,21.4772727 L80.94,21.4772727 L80.94,18.1558442 Z M79.73,26.1331169 L79.73,22.8116883 L82,22.8116883 L82,26.1331169 L79.73,26.1331169 L79.73,26.1331169 Z M82.14,30.788961 L82.14,27.4675325 L89.31,27.4675325 L89.31,30.788961 L82.14,30.788961 Z M86.79,32.1428571 L86.79,35.4642857 L84.55,35.4642857 L84.55,32.1428571 L86.79,32.1428571 Z M80.94,36.7987013 L83.17,36.7987013 L83.17,40.1201299 L80.94,40.1201299 L80.94,36.7987013 Z M81.94,44.775974 L81.94,41.4350649 L87.45,41.4350649 L87.45,44.8051948 L81.93,44.8051948 L81.94,44.775974 Z M85.55,46.1103896 L87.78,46.1103896 L87.78,49.4318182 L85.54,49.4318182 L85.55,46.1103896 Z M83.13,50.7467532 L85.36,50.7467532 L85.36,54.0681818 L83.13,54.0681818 L83.13,50.7467532 Z M80.72,55.4025974 L87.23,55.4025974 L87.23,58.724026 L80.72,58.724026 L80.72,55.4025974 Z M95,60.0584416 L95,63.3798701 L92.77,63.3798701 L92.77,60.0584416 L95,60.0584416 Z M91.39,63.3798701 L85.54,63.3798701 L85.54,60.0584416 L91.39,60.0584416 L91.39,63.3798701 Z M91.39,69.3701299 L91.39,72.6915584 L85.54,72.6915584 L85.54,69.3701299 L91.39,69.3701299 Z M80.72,68.0357143 L80.72,64.7142857 L87.23,64.7142857 L87.23,68.0357143 L80.72,68.0357143 Z M81.93,60.0584416 L84.16,60.0584416 L84.16,63.3798701 L81.93,63.3798701 L81.93,60.0584416 Z M81.93,69.3701299 L84.16,69.3701299 L84.16,72.6915584 L81.93,72.6915584 L81.93,69.3701299 Z M95,72.6915584 L92.77,72.6915584 L92.77,69.3701299 L95,69.3701299 L95,72.6915584 Z M93.8,68.0357143 L88.61,68.0357143 L88.61,64.7142857 L93.8,64.7142857 L93.8,68.0357143 Z M93.8,58.724026 L88.61,58.724026 L88.61,55.4025974 L93.8,55.4025974 L93.8,58.724026 Z M96.21,54.0681818 L94,54.0681818 L94,50.7467532 L96.23,50.7467532 L96.21,54.0681818 Z M98.62,49.4123377 L96.39,49.4123377 L96.39,46.0909091 L98.62,46.0909091 L98.62,49.4123377 Z" id="Shape" fill="#2969F6"></path>
                <path d="M18.25,63.3798701 L15.84,63.3798701 L15.84,58.724026 L0,58.724026 L0,64.7142857 L2.41,64.7142857 L2.41,68.0357143 L0,68.0357143 L0,74.025974 L15.84,74.025974 L15.84,69.3701299 L18.25,69.3701299 L18.25,63.3798701 Z M7.41,68.0357143 L7.41,64.7142857 L13.25,64.7142857 L13.25,68.0357143 L7.41,68.0357143 Z M14.46,63.3798701 L8.94,63.3798701 L8.94,60.0584416 L14.46,60.0584416 L14.46,63.3798701 Z M1.38,63.3798701 L1.38,60.0584416 L7.56,60.0584416 L7.56,63.3798701 L1.38,63.3798701 Z M3.79,64.7142857 L6,64.7142857 L6,68.0357143 L3.79,68.0357143 L3.79,64.7142857 Z M1.38,69.3701299 L8.55,69.3701299 L8.55,72.6915584 L1.38,72.6915584 L1.38,69.3701299 Z M14.46,72.6915584 L9.93,72.6915584 L9.93,69.3701299 L14.46,69.3701299 L14.46,72.6915584 Z M16.87,68.0357143 L14.64,68.0357143 L14.64,64.7142857 L16.87,64.7142857 L16.87,68.0357143 Z" id="Shape" fill="#2969F6"></path>
            </g>
        </g>
    </g>
</svg>

<svg width="100" height="75" xmlns="http://www.w3.org/2000/svg"><g fill-rule="nonzero" fill="none"><path d="M61.89.974a.726.726 0 00-.78.604.696.696 0 00.62.75l6.05.078-39.84 33.691a.66.66 0 00-.204.754.69.69 0 00.664.435.764.764 0 00.46-.166L69.11 2.922v6.35c-.04.374.236.71.62.75h.08a.684.684 0 00.69-.593V.974h-8.61z" fill="#032663"/><path d="M73.87 72.672H71a.399.399 0 000-.156V16.471h-8.46v56.045a.721.721 0 000 .156h-4a.721.721 0 000-.156V28.841h-8.4v43.675a.399.399 0 000 .156h-4a.721.721 0 000-.156v-32.27h-8.39v32.27a.721.721 0 000 .156h-4a.721.721 0 000-.156V49.753h-8.4v22.763a.721.721 0 000 .156h-2.84a.707.707 0 00-.675.313.667.667 0 000 .728.707.707 0 00.675.313h51.36a.707.707 0 00.675-.313.667.667 0 000-.728.707.707 0 00-.675-.313zm-9.93-.156V17.825h5.69v54.691a.721.721 0 000 .156h-5.72a.723.723 0 00.03-.156zm-12.4 0V30.195h5.69v42.321a.721.721 0 000 .156h-5.72a.723.723 0 00.03-.156zm-12.39 0V41.61h5.68v30.906a.721.721 0 000 .156h-5.72a.4.4 0 00.04-.156zm-12.4 0V51.088h5.68v21.428a.721.721 0 000 .156h-5.71a.723.723 0 00.03-.156z" fill="#A8C5DD"/><path d="M100 44.805h-3.61v-4.704h-1v-3.322H99v-5.99h-2.4v-4.656h-2.41v-3.321h1.21v-5.99h-1.21V13.5h1.21V7.51H79.56v4.656h-1.21v5.99h1.21v3.321h-1.21v5.99h2.41v4.676h2.41v3.321h-3.61v5.99h1v4.656h3.62v3.322h-2.43v4.656h-2.41v5.99h1.2v3.321h-1.2v5.99h1.2v4.637h15.85v-5.99h-1.21v-3.322h1.21v-5.99h-1.21v-3.321h2.41v-4.656H100v-5.942zm-10.84 4.607v-3.321H95v3.321h-5.84zm-2.41 4.656v-3.321h5.84v3.321h-5.84zM90.4 36.78v3.322h-5.85v-3.322h5.85zm3.6-4.636v3.321h-5.83v-3.321H94zm-4.8-9.331v3.321h-5.85v-3.321h5.85zM79.73 13.5h7.17v3.321h-7.17V13.5zm4.82-1.334V8.844h5.85v3.322h-5.85zm4 5.99H94v3.321h-5.5l.05-3.321zM95 41.436v3.37h-6.17v-3.37H95zM91.78 40.1v-3.322H94v3.322h-2.22zm5.85-7.958v3.321H95.4v-3.321h2.23zm-2.41-4.675v3.321h-4.53v-3.321h4.53zm-2.41-1.335h-2.23v-3.321h2.23v3.321zm0-9.312h-4.53V13.5h4.53v3.321zM94 12.166h-2.22V8.844H94v3.322zM80.94 8.844h2.23v3.322h-2.23V8.844zm0 9.312h6.18v3.321h-6.18v-3.321zm-1.21 7.977v-3.321H82v3.321h-2.27zm2.41 4.656v-3.321h7.17v3.321h-7.17zm4.65 1.354v3.321h-2.24v-3.321h2.24zm-5.85 4.656h2.23v3.321h-2.23V36.8zm1 7.977v-3.34h5.51v3.37h-5.52l.01-.03zm3.61 1.334h2.23v3.322h-2.24l.01-3.322zm-2.42 4.637h2.23v3.321h-2.23v-3.321zm-2.41 4.656h6.51v3.321h-6.51v-3.321zM95 60.058v3.322h-2.23v-3.322H95zm-3.61 3.322h-5.85v-3.322h5.85v3.322zm0 5.99v3.322h-5.85V69.37h5.85zm-10.67-1.334v-3.322h6.51v3.322h-6.51zm1.21-7.978h2.23v3.322h-2.23v-3.322zm0 9.312h2.23v3.322h-2.23V69.37zM95 72.692h-2.23V69.37H95v3.322zm-1.2-4.656h-5.19v-3.322h5.19v3.322zm0-9.312h-5.19v-3.321h5.19v3.321zm2.41-4.656H94v-3.321h2.23l-.02 3.321zm2.41-4.656h-2.23v-3.321h2.23v3.321zM18.25 63.38h-2.41v-4.656H0v5.99h2.41v3.322H0v5.99h15.84V69.37h2.41v-5.99zM7.41 68.036v-3.322h5.84v3.322H7.41zm7.05-4.656H8.94v-3.322h5.52v3.322zm-13.08 0v-3.322h6.18v3.322H1.38zm2.41 1.334H6v3.322H3.79v-3.322zM1.38 69.37h7.17v3.322H1.38V69.37zm13.08 3.322H9.93V69.37h4.53v3.322zm2.41-4.656h-2.23v-3.322h2.23v3.322z" fill="#2969F6"/></g></svg>
